axelor-front/src/assets/axelor-icon.svg

<svg xmlns="http://www.w3.org/2000/svg" width="241" height="228"><path fill="#3ecf8e" stroke="#3ecf8e" stroke-width="2" d="m1 227 107-113.5-55-62h29.5l39 44.5L231 1.5h9l-105 112 57 63.5h-29l-42.5-47-110 97Z"/></svg>

<svg xmlns="http://www.w3.org/2000/svg" width="241" height="228"><path d="M 1 227 L 108 113.5 L 53 51.5 L 82.5 51.5 L 121.5 96 L 231 1.5 L 240 1.5 L 135 113.5 L 192 177 L 163 177 L 120.5 130 L 10.5 227 Z" fill="#3ecf8e" stroke-width="2" stroke="#3ecf8e"></path></svg>
